X: 241
T: Terrier's Delight (reel)
C: BB 11/06
N: 202184
L: 1/8
M: 4/4
R: reel
Q: 380
K: D
E |"D" D2 FA "A" GECA, | "G"B,2 DG "D"AFED |\
"C"E=ccB cBAG | "D"FAdF "A"EFGE |
"D" D2 FA "A" GECA, | "G"B,2 DG "A"AGAc|\
"D"dA (3ABA "C"=cG (3GFG | "D" FA "A"GE "D" D3 :|
z | "D"d2 fd fgaf | "C" =c2 ec efge |\
"D" dfaf "C"=cege | "D" fd (3ded "C"=cAGE |
"D" Dd^cd "A"eAce | "D" fd (3ded "A7" gece |\
"D"fa (3aba "Em" bged | "A7"cAGE "D" D3 :|
%%%%%%%%%%%%%%%%%%%%%
